X:1
T:Sarah, CM
T:Sarah, CM
T:Charles Hutchinson Gabriel, 1901
T:Public Domain Courtesy of the Cyber Hymnal™
C:Charles Hutchinson Gabriel, 1901
Z:Public Domain
Z:Courtesy of the Cyber Hymnal™
%%score 1 ( 2 3 )
L:1/8
Q:1/4=95
M:3/4
K:G
V:1 treble 
V:2 bass 
V:3 bass 
V:1
 [B,D][B,D] [B,G] | [DB]3 [Ec] [DB]>[DA] | [DA]3 [CD] [CD][CF] | [CA]4 [DB]2 | %4
 [B,G]3 [B,D] [B,D][B,G] | [DB]3 [=Fd] [Ed]>[Ec] | [Ec]4 [Ec]2 | [DB]3 [DG] [DF][DA] | %8
 !fermata![DG]3 |] %9
V:2
 [G,,G,][G,,G,] [G,,G,] | [G,,G,]3 [G,,G,] [D,G,]>[D,F,] | [D,F,]3 [D,F,] [D,F,][D,A,] | %3
 [D,F,]4 [D,F,]2 | [G,,G,]3 G, G,G, | G,3 [B,,G,] [C,G,]>[C,G,] | [C,G,]4 [C,G,]2 | %7
 [D,G,]3 [D,B,] [D,A,][D,C] | !fermata![G,,B,]3 |] %9
V:3
 x3 | x6 | x6 | x6 | x3 G, G,G, | G,3 x3 | x6 | x6 | x3 |] %9

